svgs/light/circle-phone.svg

<svg xmlns="http://www.w3.org/2000/svg" viewBox="0 0 512 512"><!--! Font Awesome Pro 6.0.0-alpha3 by @fontawesome - https://fontawesome.com License - https://fontawesome.com/license (Commercial License) --><path d="M369.5 276.3C369.5 276.3 369.5 276.3 369.5 276.3l-47.91-20.53c-15.17-6.328-32.97-1.859-43.25 10.75l-6.719 8.188C258.1 265.5 246.5 253.9 237.4 240.4l8.266-6.781c12.86-10.62 17.11-28.06 10.55-43.41L235.7 142.5c-7.141-16.52-25.06-25.5-42.58-21.52L148.9 131.2C131.9 135.1 120 149.1 120 167.5C120 291.3 220.7 392 344.5 392c17.45 0 32.39-11.88 36.31-28.88l10.2-44.28C395.1 301.3 385.1 283.5 369.5 276.3zM349.7 355.9C349.1 358.4 347 360 344.5 360C238.4 360 152 273.6 152 167.5c0-2.469 1.625-4.5 4.094-5.062l44.25-10.27C200.7 152 201.1 152 201.5 152c2.062 0 4.016 1.234 4.844 3.125l20.44 47.7c.9531 2.234 .3906 4.594-1.453 6.109L206.3 224.5C200.4 229.4 198.7 237.8 202.4 244.5c15 27.58 37.53 50.09 65.13 65.13c6.781 3.688 15.17 2 20.03-3.906l15.58-19.02c1.406-1.734 3.984-2.328 6.016-1.516l47.66 20.44c2.328 1.031 3.609 3.562 3.047 6L349.7 355.9zM256 0c-141.4 0-256 114.6-256 256c0 141.4 114.6 256 256 256s256-114.6 256-256C512 114.6 397.4 0 256 0zM256 480c-123.5 0-224-100.5-224-224s100.5-224 224-224s224 100.5 224 224S379.5 480 256 480z"/></svg>

<svg xmlns="http://www.w3.org/2000/svg" viewBox="0 0 512 512"><!-- Font Awesome Pro 6.0.0-alpha2 by @fontawesome - https://fontawesome.com License - https://fontawesome.com/license (Commercial License) --><path d="M256 16C123.451 16 16 123.451 16 256S123.451 496 256 496S496 388.549 496 256S388.549 16 256 16ZM256 464C141.309 464 48 370.691 48 256S141.309 48 256 48S464 141.309 464 256S370.691 464 256 464ZM369.562 276.297C369.531 276.281 369.469 276.281 369.453 276.266L321.594 255.75C306.422 249.422 288.625 253.891 278.344 266.5L271.625 274.687C258.141 265.5 246.547 253.906 237.359 240.438L245.625 233.656C258.484 223.031 262.734 205.594 256.172 190.25L235.703 142.469C228.563 125.953 210.641 116.969 193.125 120.953L148.938 131.203C131.906 135.078 120 149.984 120 167.469C120 291.281 220.719 392 344.531 392C361.984 392 376.922 380.125 380.844 363.125L391.047 318.844C395.062 301.344 386.031 283.469 369.562 276.297ZM349.656 355.938C349.094 358.375 347.031 360 344.531 360C238.375 360 152 273.625 152 167.469C152 165 153.625 162.969 156.094 162.406L200.344 152.141C200.719 152.047 201.094 152 201.469 152C203.531 152 205.484 153.234 206.312 155.125L226.75 202.828C227.703 205.062 227.141 207.422 225.297 208.938L206.312 224.5C200.375 229.375 198.734 237.781 202.406 244.531C217.406 272.109 239.938 294.625 267.531 309.656C274.312 313.344 282.703 311.656 287.562 305.75L303.141 286.734C304.547 285 307.125 284.406 309.156 285.219L356.812 305.656C359.141 306.688 360.422 309.219 359.859 311.656L349.656 355.938Z"/></svg>
